X: 2
T: The Cascade Polka
C: Timmy Connor
M: 2/4
L: 1/8
R: polka
K: G Major
|: BA/B/ cD | ED AD | BA/B/ dG | BA A2 |
BA/B/ cD | ED AD | BA/B/ dA | AG G2 :|
|: Bd dB/d/ | eB dG | BA/B/ dG | BA A2 |
Bd dB/d/ | eB dG | BA/B/ dA |[1 AG G2 :|[2 AG GA/G/ ||
